dist/assets/img/booking/logo.svg

<svg xmlns="http://www.w3.org/2000/svg" width="85" height="41" fill="none" viewBox="0 0 85 41"><path fill="#9D8665" d="M0 41L42.5 0L85 41H0ZM71.1751 40.3828H83.1745L77.1793 34.6113L71.1751 40.3828ZM57.3062 40.3828H69.3056L63.3104 34.6113L57.3062 40.3828ZM43.4353 40.3828H55.4367L49.4345 34.6113L43.4353 40.3828ZM29.5404 40.3828H41.5907L35.5656 34.6113L29.5404 40.3828ZM15.6015 40.3828H27.6019L21.6067 34.6113L15.6015 40.3828ZM1.81255 40.3828H13.9129L7.91767 34.6133L1.81255 40.3828ZM36.1691 34.0261L42.449 40.1854L48.783 34.0789L42.453 27.9574L36.1691 34.0261ZM64.2966 33.6402C64.2053 33.7189 64.1456 33.8278 64.1285 33.9469C64.1115 34.066 64.1381 34.1873 64.2036 34.2883V34.4159L64.2946 34.4648L68.9339 39.018L70.2978 40.1695L76.6167 34.0779L70.4307 28.1249H70.0679L64.2966 33.6402ZM22.2962 34.0281L28.6281 40.1326L34.958 34.0281L28.6281 27.9056L22.2962 34.0281ZM50.033 34.0281L56.4618 40.1306L62.7918 34.0281L56.4618 27.9076L50.033 34.0281ZM8.42726 34.0281L14.7552 40.1306L15.1998 39.7119L20.6285 34.4817C20.6998 34.4276 20.7576 34.3578 20.7975 34.2777C20.8373 34.1977 20.8582 34.1095 20.8583 34.0201C20.8567 33.9246 20.8327 33.8308 20.7881 33.7463C20.7435 33.6618 20.6796 33.5889 20.6015 33.5336C19.5264 32.5216 18.4502 31.4738 17.3711 30.427L15.7584 28.8677L14.7592 27.9056L8.42726 34.0281ZM15.3617 27.3393L21.7886 33.5296L21.9834 33.1866L27.6349 27.7261C27.7182 27.6504 27.7734 27.5489 27.7915 27.4379C27.8096 27.327 27.7897 27.2132 27.7348 27.115V26.9854L27.6349 26.8996L22.1393 21.6555C22.0482 21.5616 21.945 21.4802 21.8325 21.4132L21.6327 21.2926L15.3617 27.3393ZM43.699 26.9844C43.6423 27.0277 43.5948 27.082 43.5595 27.144C43.5241 27.206 43.5016 27.2744 43.4932 27.3453C43.4921 27.4283 43.5084 27.5106 43.5409 27.587C43.5734 27.6633 43.6215 27.7321 43.6821 27.7889L48.8949 32.8506C49.0288 32.9962 49.1946 33.1547 49.3945 33.3292L49.6063 33.5216L55.9323 27.423L49.1996 20.9785V21.6844L43.699 26.9844ZM57.0653 27.3832L63.3973 33.4897L69.7272 27.3832L63.3973 21.2786L57.0653 27.3832ZM29.2316 27.3832L35.5556 33.4817L36.0691 33.0241L36.8975 32.2345C38.3763 30.8268 39.9061 29.3721 41.4159 27.8478C41.4897 27.7976 41.5505 27.7307 41.5934 27.6525C41.6363 27.5744 41.66 27.4872 41.6627 27.3981C41.6649 27.302 41.6442 27.2066 41.6024 27.12C41.5605 27.0333 41.4987 26.9578 41.4219 26.8996C39.7002 25.2586 38.0516 23.6844 36.4259 22.0922L35.5586 21.2836L29.2316 27.3832ZM22.2972 20.6465L28.6291 26.7491L34.959 20.6465L28.6291 14.5221L22.2972 20.6465ZM36.1681 20.6465L42.452 26.7361L48.782 20.6316L42.498 14.5251L36.1681 20.6465ZM50.037 20.6465L56.3689 26.7341L62.6988 20.6276L56.3669 14.54L50.037 20.6465ZM49.2436 8.07857C49.2251 8.10788 49.2014 8.13355 49.1737 8.15433C47.3171 9.97283 45.4636 11.7714 43.5861 13.551C43.5031 13.624 43.4475 13.723 43.4284 13.8317C43.4093 13.9404 43.4279 14.0524 43.4812 14.1492V14.2788L43.5811 14.3715L49.0078 19.6157L49.4874 20.0284L55.8064 13.9528L49.4454 7.75654L49.2436 8.07857ZM29.2306 13.9428L35.5476 20.0324L35.9472 19.7084L41.5098 14.3486C41.6001 14.269 41.6595 14.1604 41.6777 14.0416C41.696 13.9229 41.6719 13.8015 41.6097 13.6986V13.5689L41.5098 13.4892L35.6385 7.85923L29.2306 13.9428ZM36.5558 6.91905C36.4665 7.01021 36.4151 7.13162 36.4118 7.25899C36.4085 7.38636 36.4535 7.51031 36.5378 7.606L42.452 13.2938L48.784 7.18725L42.6679 1.32099H42.3042L36.5558 6.91905Z"/></svg>

<svg xmlns="http://www.w3.org/2000/svg" width="85" height="41" fill="none" viewBox="0 0 85 41"><path fill="#9D8665" d="M0 41 42.5 0 85 41zm71.175-.617h12l-5.996-5.772zm-13.869 0h12L63.31 34.61zm-13.87 0h12l-6.001-5.772zm-13.896 0h12.05l-6.024-5.772zm-13.938 0h12l-5.995-5.772zm-13.79 0h12.1l-5.994-5.77zm34.357-6.357 6.28 6.16 6.334-6.107-6.33-6.122zm28.128-.386a.5.5 0 0 0-.093.648v.128l.09.049 4.64 4.553 1.364 1.151 6.319-6.091-6.186-5.953h-.363zm-42 .388 6.331 6.105 6.33-6.105-6.33-6.122zm27.736 0 6.429 6.103 6.33-6.103-6.33-6.12zm-41.606 0 6.328 6.103.445-.42 5.429-5.23a.58.58 0 0 0-.027-.947c-1.076-1.012-2.152-2.06-3.23-3.107l-1.614-1.56-.999-.961zm6.935-6.689 6.427 6.19.194-.342 5.652-5.46a.5.5 0 0 0 .1-.612v-.13l-.1-.085-5.496-5.244a1.5 1.5 0 0 0-.306-.243l-.2-.12zm28.337-.355a.53.53 0 0 0-.206.361.6.6 0 0 0 .19.444l5.212 5.062q.2.217.5.478l.211.193 6.326-6.099-6.732-6.444v.705zm13.366.4 6.332 6.106 6.33-6.107-6.33-6.104zm-27.833 0 6.324 6.098.513-.458.828-.79c1.48-1.407 3.01-2.862 4.519-4.386a.56.56 0 0 0 .247-.45.6.6 0 0 0-.241-.498 510 510 0 0 1-4.996-4.808l-.867-.808zm-6.935-6.738 6.332 6.103 6.33-6.102-6.33-6.125zm13.871 0 6.284 6.09 6.33-6.104-6.284-6.107zm13.869 0 6.332 6.088 6.33-6.106-6.332-6.088zM49.244 8.08a.3.3 0 0 1-.07.075 473 473 0 0 1-5.588 5.397.486.486 0 0 0-.105.598v.13l.1.092 5.427 5.245.48.412 6.318-6.075-6.36-6.196zM29.23 13.943l6.317 6.09.4-.325 5.562-5.36a.51.51 0 0 0 .1-.65v-.13l-.1-.079-5.871-5.63zm7.325-7.024a.504.504 0 0 0-.018.687l5.914 5.688 6.332-6.107-6.116-5.866h-.364z"/></svg>
